X:1
T: The Marquis of Huntly's new Strathspey
C:R. Mackintosh
R:Strathspey
Q: 128
K:F
M:4/4
L:1/16
|:A2|F3A c2A2 f3c dcBA|F2AB c3A Gg3 g3a|F3A cA3 f3c dcBA|B2cd c3B AF3 F2A2|
F3A c2A2 f3c dcBA|F2AB c3A Gg3 g3a|F3A cA3 f3c dcBA|B2cd c3B AF3 F2c2|
fa3 cf3 Ac3 Fc3|fa3 g3f eg3 g3e|fa3 df3 cf3 Ac3|B2cd c3B A2F2 F2c2|
fa3 cf3 Ac3 Fc3|fa3 g3f eg3 g2ag|fga2 gab2 agf2 gfe2|fd3 c3B AF3 F2:|
